svgs/solid/solar-system.svg

<svg xmlns="http://www.w3.org/2000/svg" viewBox="0 0 512 512"><!-- Font Awesome Pro 6.0.0-alpha2 by @fontawesome - https://fontawesome.com License - https://fontawesome.com/license (Commercial License) --><path d="M391.75 120.261C375.125 103.638 349.75 102.638 331 115.512C307.5 103.013 281.875 96.013 256 96.013C183.625 96.013 120.25 144.634 101.5 214.628C82.75 284.498 113.25 358.367 176 394.614C238.75 430.736 318 420.361 369.125 369.116C420.125 318.12 428.75 241.501 396.5 181.006C409.375 162.258 408.375 136.885 391.75 120.261ZM335.25 335.243C294.375 376.865 228.375 380.24 183.375 343.118C138.375 305.996 129.25 240.501 162.5 192.505C195.625 144.509 260 129.885 310.75 158.758C311.75 169.507 315.75 180.006 323.875 188.131C332 196.255 342.5 200.255 353.125 201.255C377.125 244.001 371.5 298.871 335.25 335.243ZM256 192.005C220.625 192.005 192 220.628 192 256S220.625 319.995 256 319.995S320 291.372 320 256S291.375 192.005 256 192.005ZM336.875 447.609C258.875 480.481 168.75 462.858 108.875 403.113C39.376 333.494 29.626 226.627 79.375 146.384C104.875 152.384 131.125 139.885 142.625 116.387C154 92.764 147.625 64.516 127.25 48.142C106.875 31.769 77.875 31.644 57.375 47.892C36.876 64.141 30.251 92.514 41.626 116.012C-23.374 215.378 -12.249 349.742 75 436.985C151.125 513.354 266.875 533.602 364.375 487.606C362.25 485.856 359.875 484.356 357.875 482.231C348.25 472.482 341.125 460.733 336.875 447.609ZM437 75.015C360.875 -1.354 245.125 -21.602 147.625 24.394C149.75 26.144 152.125 27.644 154.125 29.769C163.75 39.518 170.875 51.267 175.125 64.391C253.125 31.519 343.25 49.142 403.125 108.887C472.624 178.506 482.374 285.373 432.625 365.616C407.125 359.616 380.875 372.115 369.375 395.613C358 419.236 364.375 447.484 384.75 463.858C405.125 480.231 434.125 480.356 454.625 464.108C475.124 447.859 481.75 419.486 470.375 395.988C535.374 296.622 524.249 162.258 437 75.015Z"/></svg>

<svg xmlns="http://www.w3.org/2000/svg" viewBox="0 0 512 512"><!--! Font Awesome Pro 6.0.0-alpha3 by @fontawesome - https://fontawesome.com License - https://fontawesome.com/license (Commercial License) --><path d="M391.8 120.3c-16.62-16.62-42.01-17.62-60.76-4.743c-23.5-12.5-49.1-19.51-74.97-19.51c-72.37 0-135.8 48.63-154.5 118.6c-18.75 69.87 11.75 143.7 74.5 179.1c62.75 36.12 142 25.75 193.1-25.49c50.1-50.1 59.62-127.6 27.37-188.1C409.4 162.3 408.4 136.9 391.8 120.3zM335.2 335.2c-40.87 41.62-106.9 45.01-151.9 7.891C138.4 305.1 129.3 240.5 162.5 192.5c33.12-47.1 97.49-62.6 148.2-33.73c1 10.75 5.011 21.23 13.14 29.35c8.125 8.124 18.63 12.13 29.26 13.13C377.1 244 371.5 298.9 335.2 335.2zM255.1 192c-35.37 0-63.1 28.63-63.1 63.1S220.6 319.1 256 319.1S320 291.4 320 256S291.4 192 255.1 192zM336.9 447.6c-77.1 32.87-168.1 15.22-228-44.53c-69.5-69.62-79.25-176.5-29.5-256.7C104.9 152.4 131.1 139.9 142.6 116.4c11.38-23.62 4.1-51.87-15.37-68.24C106.9 31.77 77.88 31.64 57.38 47.89C36.88 64.14 30.25 92.53 41.62 116c-64.1 99.37-53.91 233.7 33.34 320.1c76.12 76.37 191.9 96.62 289.4 50.62c-2.125-1.75-4.529-3.25-6.529-5.375C348.2 472.5 341.1 460.8 336.9 447.6zM437.1 75c-76.12-76.37-191.1-96.61-289.5-50.62c2.125 1.75 4.527 3.249 6.527 5.374c9.625 9.749 16.73 21.49 20.98 34.61c77.1-32.87 168.1-15.22 228 44.53c69.5 69.62 79.25 176.5 29.5 256.7c-25.5-5.1-51.74 6.502-63.24 30c-11.38 23.62-5 51.87 15.37 68.24c20.37 16.37 49.37 16.5 69.87 .25s27.13-44.63 15.75-68.13C535.4 296.6 524.3 162.2 437.1 75z"/></svg>
